!!!COM: Corelli, Arcangelo
!!!OTL: 
!!!ONM: Opus 5, No. 2
!!!OMV: 3
!!!CDT: 1653/2/17/-1713/1/8/
!!!OCY: Italia
**kern	**kern	**kern
*clefC	*clefG	*clefG
*k[b-]	*k[b-]	*k[b-]
*F:	*F:	*F:
*M3/4	*M3/4	*M3/4
=1	=1	=1
2B-	2.r	8b-
.	.	8f
.	.	8b-
.	.	8dd
4A	.	8cc
.	.	8ff
=2	=2	=2
4B-	2.r	8dd
.	.	8ff
4D	.	8bb-
.	.	8dd
4F	.	8cc
.	.	8aa
=3	=3	=3
2BB-	2.r	8b-
.	.	8dd
.	.	8ff
.	.	8bb-
4B-	.	8ff
.	.	8dd
=4	=4	=4
2A	2.r	8cc
.	.	8ff
.	.	8cc
.	.	8a
4A	.	8f
.	.	8a
=5	=5	=5
4G	2.r	8b-
.	.	8dd
4c	.	8b-
.	.	8g
4C	.	8e
.	.	8cc
=6	=6	=6
2F	2.r	8a
.	.	8cc
.	.	8a
.	.	8f
4r	.	8a
.	.	8cc
=7	=7	=7
2D	2.r	8ff
.	.	8bb-
.	.	8ff
.	.	8dd
4r	.	8b-
.	.	8f
=8	=8	=8
2E-	2.r	8g
.	.	8b-
.	.	8e-
.	.	8g
4r	.	8b-
.	.	8ee-
=9	=9	=9
2E	2.r	8gg
.	.	8ccc
.	.	8gg
.	.	8ee
4r	.	8cc
.	.	8g
=10	=10	=10
2F	2.r	8a
.	.	8cc
.	.	8a
.	.	8f
4r	.	8a
.	.	8cc
=11	=11	=11
2D	2.r	8ff
.	.	8bb-
.	.	8ff
.	.	8dd
4D	.	8b-
.	.	8f
=12	=12	=12
2E-	2.r	8g
.	.	8a
.	.	8b-
.	.	8bb-
4D	.	8ff
.	.	8dd
=13	=13	=13
4E-	2.r	8gg
.	.	8cc
4F	.	4.cc
4FF	.	.
.	.	8cc
=14	=14	=14
2BB-	2.r	12b-
.	.	12cc
.	.	12dd
.	.	12b-
.	.	12cc
.	.	12dd
4r	.	12b-
.	.	12cc
.	.	12dd
=15	=15	=15
2AA	2.r	12cc
.	.	12ff
.	.	12ff
.	.	12cc
.	.	12ff
.	.	12ff
4r	.	12a
.	.	12ff
.	.	12ff
=16	=16	=16
2BB-	2.r	12dd
.	.	12ee
.	.	12ff
.	.	12dd
.	.	12ee
.	.	12ff
4r	.	12dd
.	.	12ee
.	.	12ff
=17	=17	=17
2GG	2.r	12b-
.	.	12ee
.	.	12ee
.	.	12b-
.	.	12ee
.	.	12ee
4r	.	12b-
.	.	12ee
.	.	12ee
=18	=18	=18
2FF	2.r	12a
.	.	12ccc
.	.	12ccc
.	.	12a
.	.	12ccc
.	.	12ccc
4AA	.	12a
.	.	12ccc
.	.	12ccc
=19	=19	=19
2BB-	2.r	12dd
.	.	12bb-
.	.	12bb-
.	.	12dd
.	.	12bb-
.	.	12bb-
4GG	.	12dd
.	.	12bb-
.	.	12bb-
=20	=20	=20
2C	2.r	12ee
.	.	12bb-
.	.	12bb-
.	.	12ee
.	.	12bb-
.	.	12bb-
4AA	.	12ff
.	.	12aa
.	.	12aa
=21	=21	=21
4BB-	2.r	12ff
.	.	12aa
.	.	12aa
4C	.	12cc
.	.	12ff
.	.	12ff
4CC	.	12cc
.	.	12ff
.	.	12ee
=22	=22	=22
2FF	2.r	8ff
.	.	8cc
.	.	8a
.	.	8cc
4r	.	8g
.	.	8cc
=23	=23	=23
4F	2.r	8a
.	.	8cc
4E	.	8g
.	.	8cc
4C	.	8e
.	.	8cc
=24	=24	=24
2F	2.r	12a
.	.	12ff
.	.	12ff
.	.	12dd
.	.	12ff
.	.	12ff
4r	.	12cc
.	.	12ff
.	.	12ff
=25	=25	=25
4B-	2.r	12dd
.	.	12ff
.	.	12ff
4A	.	12cc
.	.	12ff
.	.	12ff
4F	.	12a
.	.	12ff
.	.	12ff
=26	=26	=26
2B-	2.r	12dd
.	.	12bb-
.	.	12bb-
.	.	12dd
.	.	12bb-
.	.	12bb-
4BB-	.	12dd
.	.	12bb-
.	.	12bb-
=27	=27	=27
2F	2.r	12cc
.	.	12aa
.	.	12aa
.	.	12cc
.	.	12aa
.	.	12aa
4F#	.	12cc
.	.	12aa
.	.	12aa
=28	=28	=28
2G	2.r	12b-
.	.	12gg
.	.	12gg
.	.	12b-
.	.	12gg
.	.	12gg
4GG	.	12b-
.	.	12gg
.	.	12gg
=29	=29	=29
2D	2.r	12a
.	.	12ddd
.	.	12ddd
.	.	12dd
.	.	12ddd
.	.	12ddd
4BB-	.	12dd
.	.	12ddd
.	.	12ddd
=30	=30	=30
2C	2.r	12ee
.	.	12ccc
.	.	12ccc
.	.	12ee
.	.	12ccc
.	.	12ccc
4C	.	12ee
.	.	12ccc
.	.	12ccc
=31	=31	=31
2D	2.r	12ff#
.	.	12ccc
.	.	12ccc
.	.	12ff#
.	.	12ccc
.	.	12ccc
4BB-	.	12gg
.	.	12bb-
.	.	12bb-
=32	=32	=32
4C	4r	12gg
.	.	12bb-
.	.	12bb-
4D	2dd	2aa
4DD	.	.
=33	=33	=33
2GG	2.r	8gg
.	.	8dd
.	.	8gg
.	.	8bb-
4r	.	8gg
.	.	8dd
=34	=34	=34
4G	2.r	8b
.	.	8dd
4B	.	8gg
.	.	8dd
4G	.	8b
.	.	8gg
=35	=35	=35
2c	2.r	8ee
.	.	8g
.	.	8cc
.	.	8ee
4r	.	8cc
.	.	8g
=36	=36	=36
4C	2.r	8e
.	.	8g
4E	.	8cc
.	.	8g
4C	.	8e
.	.	8cc
=37	=37	=37
2F	2.r	8a
.	.	8cc
.	.	8ff
.	.	8aa
4r	.	8ff
.	.	8cc
=38	=38	=38
4F	2.r	8a
.	.	8cc
4A	.	8ff
.	.	8cc
4F	.	8a
.	.	8ff
=39	=39	=39
2B-	2.r	8dd
.	.	8f
.	.	8b-
.	.	8dd
4r	.	8b-
.	.	8f
=40	=40	=40
4BB-	2.r	8d
.	.	8f
4D	.	8b-
.	.	8f
4BB-	.	8d
.	.	8b-
=41	=41	=41
2E-	2.r	8g
.	.	8ee-
.	.	8gg
.	.	8bb-
4r	.	8gg
.	.	8ee-
=42	=42	=42
2E-	2.r	8cc
.	.	8ee-
.	.	8gg
.	.	8ee-
4r	.	8cc
.	.	8ee-
=43	=43	=43
2F	2.r	8a
.	.	8cc
.	.	8a
.	.	8f
4D	.	8b-
.	.	8f
=44	=44	=44
2E-	2.r	8g
.	.	8e-
.	.	8g
.	.	8cc
4E	.	8g
.	.	8cc
=45	=45	=45
2F	2.r	8a
.	.	8f
.	.	8a
.	.	8dd
4F#	.	8a
.	.	8dd
=46	=46	=46
2G	2.r	8b-
.	.	8g
.	.	8b-
.	.	8ee-
4G	.	8b-
.	.	8ee-
=47	=47	=47
2A	2.r	8cc
.	.	8a
.	.	8cc
.	.	8ff
4A	.	8cc
.	.	8ff
=48	=48	=48
2B-	2.r	8dd
.	.	8ff
.	.	8bb-
.	.	8dd
4BB-	.	8b-
.	.	8dd
=49	=49	=49
2F	2.r	8cc
.	.	8bb-
.	.	8aa
.	.	8cc
4F#	.	8a
.	.	8cc
=50	=50	=50
2.G	2.r	8b-
.	.	8aa
.	.	8gg
.	.	8b-
.	.	8g
.	.	8b-
=51	=51	=51
2D	2.r	8a
.	.	8gg
.	.	8ff
.	.	8a
4D	.	8f
.	.	8a
=52	=52	=52
2.E-	2.r	8g
.	.	8ff
.	.	8ee-
.	.	8g
.	.	8e-
.	.	8g
=53	=53	=53
2BB-	2.r	8f
.	.	8ee-
.	.	8dd
.	.	8f
4BB-	.	8d
.	.	8f
=54	=54	=54
2C	2.r	8e-
.	.	8dd
.	.	8cc
.	.	8e-
4C	.	8c
.	.	8e-
=55	=55	=55
2D	2.r	8d
.	.	8cc
.	.	8b-
.	.	8ff
4D	.	8bb-
.	.	8dd
=56	=56	=56
4E-	2.r	8gg
.	.	8cc
4F	.	4.cc
4FF	.	.
.	.	8cc
=57	=57	=57
2BB-	2.r	12dd
.	.	12ff
.	.	12bb-
.	.	12dd
.	.	12ff
.	.	12bb-
4BB-	.	12dd
.	.	12ff
.	.	12bb-
=58	=58	=58
2F	2.r	12cc
.	.	12aa
.	.	12aa
.	.	12cc
.	.	12aa
.	.	12aa
4F#	.	12cc
.	.	12aa
.	.	12aa
=59	=59	=59
2.G	2.r	12b-
.	.	12dd
.	.	12gg
.	.	12b-
.	.	12dd
.	.	12gg
.	.	12b-
.	.	12dd
.	.	12gg
=60	=60	=60
2D	2.r	12a
.	.	12ff
.	.	12ff
.	.	12a
.	.	12ff
.	.	12ff
4D	.	12a
.	.	12ff
.	.	12ff
=61	=61	=61
2.E-	2.r	12g
.	.	12b-
.	.	12ee-
.	.	12g
.	.	12b-
.	.	12ee-
.	.	12g
.	.	12b-
.	.	12ee-
=62	=62	=62
2BB-	2.r	12f
.	.	12dd
.	.	12dd
.	.	12f
.	.	12dd
.	.	12dd
4BB-	.	12f
.	.	12dd
.	.	12dd
=63	=63	=63
2C	2.r	12e-
.	.	12g
.	.	12cc
.	.	12e-
.	.	12g
.	.	12cc
4C	.	12e-
.	.	12g
.	.	12cc
=64	=64	=64
2D	2.r	12d
.	.	12f
.	.	12b-
.	.	12d
.	.	12f
.	.	12b-
4D	.	12d
.	.	12f
.	.	12b-
=65	=65	=65
4E-	2.r	12g
.	.	12a
.	.	12b-
4F	.	12a
.	.	12b-
.	.	12cc
4FF	.	12f
.	.	12b-
.	.	12a
=66	=66	=66
2BB-	2.r	4.b-
.	.	8ff
4D	.	8bb-
.	.	8dd
=67	=67	=67
4E-	4r	8gg
.	.	8cc
2F	2f	4.cc
.	.	8b-
=68	=68	=68
2.BB-	2.B-	2.b- 2.d
==	==	==
*-	*-	*-
!!!RWG: This file only contains pitch and duration data.
!!!RWG: Transposing instruments are not transposed.
!!!RWG: Durations of rests and tied notes may be interpreted.
!!!RWG: Key is interpreted using the Humdrum key tool.
!!!SCA: 
!!!YOR: 
!!!AGN: violin
!!!AFT: stage1
!!!ENC: F. Bennion
!!!END: 1997/04/15
!!!AST: baroque
!!!YEC: Copyright 1994, Center for Computer Assisted Research in the Humanities
!!!YEM: Rights to all derivative electronic formats reserved.
!!!YEM: Refer to licensing agreement for further details.
!!!YEN: United States of America
!!!EED: W.B. Hewlett
!!!KEY: 3474086892
!!!EMD: Converted from MuseData to Humdrum Aug 9, 1999, by Bret Aarden using muse2kern.
!!!VTS: 887169529
